!!!!SEGMENT: Distler_Jahrkreis_29_Ach-Gott-vom-Himmel-sieh-darein_3v.krn
!!!COM: Distler, Hugo
!!!CDT: 1908-1942
!!!OPR@@DE: Der Jahrkreis
!!!OPR@EN: The Year Cycle
!!!OTL@@DE: Ach Gott, vom Himmel sieh darein
!!!OTL@EN: Oh God, look down from heaven
!!!OPS: 5
!!!ONM: 29
!!!RNB: Blank measures at end are for Second verse music which is not encoded (2-voice texture).
**kern	**text	**kern	**text	**kern	**text
*part3	*part3	*part2	*part2	*part1	*part1
*staff3	*staff3	*staff2	*staff2	*staff1	*staff1
*Ialto	*	*Isoprn	*	*Isoprn	*
*clefG2	*	*clefG2	*	*clefG2	*
*k[f#]	*	*k[f#]	*	*k[f#]	*
*M4/4	*	*M4/4	*	*M4/4	*
*met(c)	*	*met(c)	*	*met(c)	*
*MM120	*	*MM120	*	*MM120	*
=1	=1	=1	=1	=1	=1
2B	Ach	2f#	Ach	2b	Ach
4A	Gott,	4g	Gott,	4cc	Gott,
4B	vom	4f#	vom	4b	vom
=2	=2	=2	=2	=2	=2
4.c	Him-	(8eL	Him-	4a	Him-
.	.	8f#J)	.	.	.
.	.	4g	mel	4ee	mel
8B	mel	.	.	.	.
4c	sieh	4a	sieh	4ee	sieh
4d	dar-	4a	dar-	4cc	dar-
=3	=3	=3	=3	=3	=3
2e	ein	2g#	ein	2b	ein
4r	.	4r	.	4r	.
4e	und	4gn	und	4b	und
=4	=4	=4	=4	=4	=4
4f#	lass	4g	lass	4cc	lass
(8eL	dich	4f#	dich	4b	dich
8dJ)	.	.	.	.	.
4c	des	4e	des	4a	des
4B	er-	4d	er-	4dd	er-
!!LO:LB:g=original
=5	=5	=5	=5	=5	=5
2c	bar-	2e	bar-	(4cc	bar-
.	.	.	.	4b)	.
2d	men,	2f#	men,	2a	men,
=6:|!	=6	=6:|!	=6	=6:|!	=6
2c	Dein	4e	Dein	2a	Dein
.	.	2f#	Wort	.	.
4B	Wort	.	.	(8bL	Wort
.	.	.	.	8aJ)	.
4A	man	4e	man	4g	man
=7	=7	=7	=7	=7	=7
4.B	laesst	4d	laesst	4f#	laesst
.	.	(8cL	nicht	4e	nicht
8B	nicht	8dJ)	.	.	.
(8cL	ha-	4e	ha-	4g	ha-
8BJ)	.	.	.	.	.
4A	ben	4f#	ben	4a	ben
=8	=8	=8	=8	=8	=8
2G	wahr,	2g	wahr,	2b	wahr,
4r	.	4r	.	4r	.
4c	der	4e	der	4g	der
!!LO:LB:g=original
=9	=9	=9	=9	=9	=9
4fn	Glaub'	4d	Glaub'	4a	Glaub'
4e	ist	4e	ist	4cc	ist
4d	auch	4fn	auch	4b	auch
4c	ver-	4g	ver-	4cc	ver-
=10	=10	=10	=10	=10	=10
(8dL	lo-	4fn	lo-	4a	lo-
8cJ)	.	.	.	.	.
4B	schen	4e	schen	4g#	schen
2A,	gar	2e,	gar	2a,	gar
=11	=11	=11	=11	=11	=11
2d	bei	2fn	bei	2a	bei
4c	al-	4g	al-	4ee	al-
4e	len	4g	len	4cc	len
=12	=12	=12	=12	=12	=12
4d	Men-	4.a	Men-	4dd	Men-
4c	schen-	.	.	4ee	schen-
.	.	8g	schen-	.	.
2d	kin-	2f#	kin-	(4dd	kin-
.	.	.	.	4cc)	.
=13	=13	=13	=13	=13	=13
1e	dern.	1g#	dern.	1b	dern.
=14||	=14	=14||	=14	=14||	=14
=15	=15	=15	=15	=15	=15
=16	=16	=16	=16	=16	=16
=17	=17	=17	=17	=17	=17
=18	=18	=18	=18	=18	=18
=19	=19	=19	=19	=19	=19
=20	=20	=20	=20	=20	=20
=21	=21	=21	=21	=21	=21
=22	=22	=22	=22	=22	=22
=23	=23	=23	=23	=23	=23
=24	=24	=24	=24	=24	=24
=25	=25	=25	=25	=25	=25
=26	=26	=26	=26	=26	=26
=27	=27	=27	=27	=27	=27
=28	=28	=28	=28	=28	=28
=29	=29	=29	=29	=29	=29
=30	=30	=30	=30	=30	=30
=31	=31	=31	=31	=31	=31
=32	=32	=32	=32	=32	=32
=33	=33	=33	=33	=33	=33
=34	=34	=34	=34	=34	=34
=35	=35	=35	=35	=35	=35
=36	=36	=36	=36	=36	=36
==	==	==	==	==	==
*-	*-	*-	*-	*-	*-
!!!YOR: Bärenreiter-Ausgabe 676
!!!YOY: 1933
!!!EFL: 29/52
!!!URL-github: https://github.com/LucasHofmann/distler/blob/main/Jahrkreis/Distler_Jahrkreis_29_Ach-Gott-vom-Himmel-sieh-darein_3v.krn
!!!URL-pdf: https://imslp.eu/files/imglnks/euimg/7/7d/IMSLP834545-PMLP518834-5-jahrkreis-EA--original-paper-600dpi.pdf#page=54 First edition, Kassel: Bärenreiter, 1933. Plate BA 676.
!!!URL-imslp: https://imslp.org/wiki/Der_Jahrkreis,_Op.5_(Distler,_Hugo)#IMSLP834545
!!!system-decoration: [(s1,s2,s3)]
!!!ENC: Lucas Hofmann
!!!END: 2024/01/08
!!!title: @{OPR@@DE}, Op. @{OPS}, Nr. @{ONM}. <i>@{OTL@@DE}</i>
